!!!COM: Robert Franz
!!!CNT: Deutscher
!!!TXO: Deutsche 
!!!OTL: Bitte
!!!OPS: Op. 9
!!!ONM: No. 3
!!!ONB: Original key: Original key
!!!LYR: Nicolaus Lenau
!!!ENC: Brian Bice
!!!YOR: Vocal Album, G. Schirmer, Inc., 1907
!!!ODT: 1860/
!!NB: Vocal melody and text only encoded.
**kern	**silbe
*clefG2	*
*k[b-e-a-d-g-]	*
*M2/4	*
=1	=1
{4f	{Weil'
4a-	auf
=2	=2
4dd-	mir,
(8cc	du
8b-)	|
=3	=3
4a-	dunk-
4b-	-les
=4	=4
(8a-	Au-
8g-)	|
4f}	-ge,}
=5	=5
{(8dd-	{u2-
8e-)	|
4e-	-be
=6	=6
(4g-	dei-
8f)	|
8e-	-ne
=7	=7
4b-	gan-
(8a-	-ze
8g-)	|
=8	=8
4f}	Macht,}
4r	.
=9	=9
{4f	{ern-
4a-	-ste,
=10	=10
4dd-	mil-
(8cc	-de,
8b-)	|
=11	=11
4a-	tra2u-
4b-	-me-
=12	=12
4cc	-ri-
4dd-}	-sche,}
=13	=13
{4b-	{un-
(8a-	-er-
8gn)	|
=14	=14
4cc	-gru2nd-
4f	-lich
=15	=15
4dd-	su2-
(8cc	-sse
8b-)	|
=16	=16
4a-}	Nacht.}
4r	.
=17	=17
{4e-	{Nimm
4f	mit
=18	=18
4g-	dei-
(8f	-nem
8e-)	|
=19	=19
4b-	Zau-
(8a-	-ber-
8g-)	|
=20	=20
4f	-dun-
4e-}	-kel}
=21	=21
{4d-	{dei-
4d-	-se
=22	=22
4d-	Welt
4e-	von
=23	=23
4f	hin-
4f	-nen
=24	=24
4f}	mir,}
4r	.
=25	=25
{4f	{dass
4a-	du
=26	=26
4dd-	u2-
(8cc	-ber
8b-)	|
=27	=27
4a-	mei-
4b-	-nem
=28	=28
(8a-	Le-
8g-)	|
4f}	-ben}
=29	=29
{(8dd-	{ein-
8e-)	|
4e-	-sam
=30	=30
(4g-	schwe-
8f)	|
8e-	-best
=31	=31
4b-	fu2r
(8a-	und
8g-)	|
=32	=32
4f}	fu2r.}
4r	.
*-	*-
